X:2630
T:Arie
C:Joh. Siegismund Scholze
O:Germany
N:This "air" was first published by Joh. Siegismund Scholze but
N:it's by no means certain he actually wrote it. He may have just
N:arranged a populr tune for the harpsichord.
R:Air, aria, arie
Z:Transcribed by Frank Nordberg - http://www.musicaviva.com
F:http://abc.musicaviva.com/tunes/scholze-joh-siegismund/schjs-arie04/schjs-arie04-pno1.abc
V:1 Program 1 6 %Harpsichord
V:2 Program 1 6 bass %Harpsichord
M:2/4
L:1/8
Q:1/4=132
K:F
V:1
c|c2f2|e3d|cBAG|AG/A/ FG|A2f2|
V:2
E,|F,G,A,F,|CC,C,B,|A,G,F,C,|F,C,F,,C,|F,E,D,G,|
%
V:1
efgc|G2=B2|c3::G|c2B2|A3d|^c2d2|
V:2
C,D,E,F,|G,2G,,2|C,3::C,|C,D,E,C,|F,E,F,D,|A,G,F,D,|
%
V:1
e/d/c/B/ Ae|f2^c2|d=c/=B/ Ad|e2^c2|d2 z c|c2f2|
V:2
A,2 z ^C,|D,2E,2|F,E,F,D,|G,2A,2|D,F,E,C,|F,G,A,F,|
%
V:1
e3d|cBBA|AGGc|d2G2|ABcF|G2E2|F3:|
V:2
CC,C,B,|A,G,/F,/ E,F,|C,2 z A,,|B,,A,,B,,G,,|F,,G,,A,,D,|B,,2C,2|F,,3:|
W:
W:
W:  From Musica Viva - http://www.musicaviva.com
W:  the Internet center for free sheet music downloads.
